src/lib/packages/icons/src/assets/line/star-slash.svg

<svg width="24" height="24" viewBox="0 0 24 24" fill="none" xmlns="http://www.w3.org/2000/svg">
<path d="M21.5301 2.46999C21.2381 2.17799 20.763 2.17599 20.469 2.46999L15.303 7.63503L13.6331 4.272C13.3261 3.642 12.7 3.251 11.999 3.251C11.298 3.251 10.672 3.64205 10.367 4.26705L8.428 8.17501C8.377 8.27501 8.29008 8.30804 8.23208 8.31704L3.75198 8.967C3.08498 9.064 2.54208 9.52404 2.33608 10.166C2.13008 10.803 2.29998 11.486 2.77798 11.947L6.02004 15.089C6.07804 15.147 6.10599 15.228 6.08999 15.31L5.77004 17.165L2.46902 20.466C2.17602 20.759 2.17602 21.234 2.46902 21.527C2.61502 21.673 2.80705 21.747 2.99905 21.747C3.19105 21.747 3.38308 21.674 3.52908 21.527L21.5291 3.53103C21.8231 3.23803 21.8231 2.76299 21.5301 2.46999ZM7.07107 14.019L3.82107 10.869C3.73007 10.782 3.74596 10.679 3.76296 10.625C3.78096 10.568 3.83106 10.47 3.96706 10.45L8.45107 9.79904C9.02107 9.71304 9.51404 9.35503 9.77004 8.84103L11.7121 4.92703C11.7881 4.77203 11.9241 4.74905 11.9981 4.74905C12.0721 4.74905 12.208 4.77203 12.286 4.93203L14.183 8.75204L7.579 15.355C7.607 14.867 7.43507 14.382 7.07107 14.019ZM21.664 10.166C21.87 10.803 21.7001 11.486 21.2221 11.948L17.9721 15.096C17.9221 15.147 17.894 15.228 17.908 15.3L18.65 19.62C18.767 20.304 18.491 20.984 17.928 21.395C17.607 21.63 17.229 21.75 16.849 21.75C16.561 21.75 16.2721 21.6821 16.0041 21.5431L12.121 19.501C12.043 19.463 11.954 19.464 11.866 19.508L7.99807 21.531C7.65007 21.713 7.27398 21.781 6.90298 21.729C6.49298 21.67 6.20899 21.291 6.26699 20.88C6.32599 20.47 6.69999 20.183 7.11599 20.244C7.18599 20.254 7.256 20.2261 7.303 20.2021L11.183 18.172C11.708 17.909 12.2941 17.91 12.8061 18.166L16.699 20.212C16.859 20.295 16.993 20.22 17.044 20.183C17.104 20.139 17.201 20.04 17.172 19.873L16.432 15.564C16.329 15.014 16.512 14.435 16.922 14.026L20.1801 10.869C20.2711 10.781 20.2551 10.678 20.2381 10.625C20.2201 10.568 20.17 10.47 20.033 10.45L18.416 10.221C18.006 10.163 17.7211 9.78301 17.7791 9.37301C17.8371 8.96301 18.214 8.67705 18.627 8.73605L20.247 8.96603C20.915 9.06403 21.458 9.52304 21.664 10.166Z" fill="currentColor"/>
</svg>

<svg xmlns="http://www.w3.org/2000/svg" width="24" height="24" fill="none"><path fill="currentColor" d="M21.53 2.47a.75.75 0 0 0-1.061 0l-5.166 5.165-1.67-3.363A1.805 1.805 0 0 0 12 3.251c-.701 0-1.327.391-1.632 1.016l-1.94 3.908a.26.26 0 0 1-.196.142l-4.48.65a1.741 1.741 0 0 0-1.416 1.199 1.722 1.722 0 0 0 .442 1.781l3.242 3.142a.245.245 0 0 1 .07.221l-.32 1.855-3.301 3.301a.75.75 0 0 0 1.06 1.061l18-17.996a.75.75 0 0 0 .001-1.061ZM7.071 14.019l-3.25-3.15a.228.228 0 0 1-.058-.244.243.243 0 0 1 .204-.175l4.484-.651a1.768 1.768 0 0 0 1.319-.958l1.942-3.914a.306.306 0 0 1 .286-.178c.074 0 .21.023.288.183l1.897 3.82-6.604 6.603a1.734 1.734 0 0 0-.508-1.336Zm14.593-3.853c.206.637.036 1.32-.442 1.782l-3.25 3.148a.239.239 0 0 0-.064.204l.742 4.32a1.808 1.808 0 0 1-.722 1.775 1.825 1.825 0 0 1-1.924.148l-3.883-2.042a.28.28 0 0 0-.255.007l-3.868 2.023c-.348.182-.724.25-1.095.198a.75.75 0 0 1 .213-1.485c.07.01.14-.018.187-.042l3.88-2.03a1.79 1.79 0 0 1 1.623-.006l3.893 2.046c.16.083.294.008.345-.029a.307.307 0 0 0 .128-.31l-.74-4.309c-.103-.55.08-1.129.49-1.538l3.258-3.157a.229.229 0 0 0 .058-.244.243.243 0 0 0-.205-.175l-1.617-.229a.75.75 0 0 1 .211-1.485l1.62.23a1.743 1.743 0 0 1 1.417 1.2Z"/></svg>
